X: 1878
T: Snow In Summer
C:Willie Hannah (1891 -1961)
B: australian traditional tunes wiki
M:3/4
L:1/8
R: Waltz
Q: 1/4=100
K:D
V:1 
"D"F2G2^G2|A6|B2A2F2|D6|D2F2A2|d2c2B2|"A7"c3BcB|G6|
C2E2G2|c6|c3dc2|"G"B4B2|"A7"A4A2|E4^E2|"D"F6-|F6|
"D"F2G2^G2|A6|B2A2F2|D6|d2c2d2|"D7"A4^A2|"G"B6-|B6|
B2^A2B2|"Em"e6|"D"A2^G2A2|d6|"A7"c3dc2|B4c2|"D"d6-|d3A^GA||
"D"B3A^GA|F3A^GA|"A7"C6-|C3A^GA|B3A^GA|E4E2|"D"D6-|D6|
"D"D2F2A2|d2c2B2|"A7"c3BcB|G6|C2E2G2|c4Bc|"G" B4GB|"D"A3A^GA|
"D"B3A^GA|F3A^GA|"A7"C6-|C3A^GA|B3A^GA|E4E2|"D"D6-|D4A2|
"D"d2c2d2|"D7"A4^A2|"G"B6-|B2A2G2|"D"F4D2|"A7"F4E2|"D"D6-|D6||
% abcbook-tune_id 6342d53a0f46e2fb90ab50cb


% abcbook-boost 0
% abcbook-tablature 
% abcbook-transpose 
% abcbook-lastupdated 1665324390006
% abcbook-soundfonts 
% abcbook-repeats 1
% NFF Book 2019
% Bush Traditions recording played by Ray Mulligan

